packages/calcite-ui-icons/icons/line-intersection-32.svg

<?xml version="1.0" encoding="UTF-8"?><svg id="icons" xmlns="http://www.w3.org/2000/svg" viewBox="0 0 32 32"><defs><style>.cls-1{fill:none;}</style></defs><rect class="cls-1" x="0" y="0" width="32" height="32"/><path d="M13,12v3h3v-3h-3ZM15,14h-1v-1h1v1ZM12,14H1v-1h11v1ZM31,13v1h-14v-1h14ZM24.30371,30.6709l-.87305.48633-8.44714-15.15723h1.14404l8.17615,14.6709ZM12.19696,11L6.78613,1.29102l.87305-.48633,5.68188,10.19531h-1.1441Z"/></svg>

<svg xmlns="http://www.w3.org/2000/svg" viewBox="0 0 32 32"><path d="M0 0h32v32H0z" style="fill:none"/><path d="M13 12v3h3v-3zm2 2h-1v-1h1zm-3 0H1v-1h11zm19-1v1H17v-1zm-6.696 17.67-.873.487L14.984 16h1.144zM12.197 11l-5.41-9.709.872-.486L13.341 11z"/></svg>
